X: 188
T: Bahar Geldi Dahi
C: Hâfız Post
O: Turkey
F: http://compmusic.upf.edu/node/140
N: ussak--beste--zencir--bahar_geldi--hafiz_post
N: makam= ussak
N: form= beste
N: usul= zencir = 120/4
M: 120/4
L: 1/16
K: C _2/4B   
Q: 1/4=66
%%MIDI tuningsystem comma53
A4 c2 _1/4B2 A4 G4  | ^F4 E2 D2 z2 G2 F2 A2  | \
w:   |   | 
G4 A12  | z2 A4 _1/4B2 A4 B2 c2  | _1/4B3A G2 A2 G4 A2 c2  | 
w:   |   |   | 
d6 _1/4B2 c2 d2 c2 B2  | z2 d2 c2 _1/4B2 e3d c2 e2  | \
w:   |   | 
d4 _1/4B2 c2 B4 A4  | G4 A12  | 
w:   |   | 
A8 f6 e2  | f2 e2 f2 g2 f3e d2 e2  | \
w:   |   | 
d6 e2 e2 d2 c4  | z2 d4 e2 e2 f2 e2 d2  | 
w:   |   | 
d4 _1/4B2 c2 B4 c2 d2  | z2 _1/4B4 c2 B4 A4  | \
w:   |   | 
G4 A4 A2 G2 d2 c2  | _1/4B3A G6 z2 B2 c2  | 
w:   |   | 
_1/4B4 A4 A2 G4 ^F2  | F3E D4 G4 G4  | \
w:   |   | 
A6 G2 A2 c2 _1/4B2 A2  | A3G ^F2 G2 F2 G2 A2 G2  | 
w:   |   | 
G12 z4  | G8 G8  | d2 c2 c2 _1/4B2 B2 A2 B2 c2  | \
w:   |   |   | 
_1/4B2 c2 B2 A2 d4 c2 B2  | _1/4B3A G12  | 
w:   |   | 
z4 _1/4B2 c2 d4 e2 d2  | c4 _1/4B2 c2 B4 A4  | \
w:   |   | 
G4 A12  | G4 A4 A6 z2  | A4 c2 _1/4B2 A4 G4  | 
w:   |   |   | 
^F4 E2 D2 z2 G2 F2 A2  | G4 A12  | z2 A4 _1/4B2 A4 B2 c2  | \
w:   |   |   | 
_1/4B3A G2 A2 G4 A2 c2  | 
w:   | 
d6 _1/4B2 c2 d2 c2 B2  | z2 d2 c2 _1/4B2 e3d c2 e2  | \
w:   |   | 
d4 _1/4B2 c2 B4 A4  | G4 A12  | 
w:   |   | 
A8 f6 e2  | f2 e2 f2 g2 f3e d2 e2  | \
w:   |   | 
d6 e2 e2 d2 c4  | z2 d4 e2 e2 f2 e2 d2  | 
w:   |   | 
d4 _1/4B2 c2 B4 c2 d2  | z2 _1/4B4 c2 B4 A4  | \
w:   |   | 
G4 A4 A2 G2 d2 c2  | _1/4B3A G6 z2 B2 c2  | 
w:   |   | 
_1/4B4 A4 A2 G4 ^F2  | F3E D4 G4 G4  | \
w:   |   | 
A6 G2 A2 c2 _1/4B2 A2  | A3G ^F2 G2 F2 G2 A2 G2  | 
w:   |   | 
G12 z4  | G8 G8  | d2 c2 c2 _1/4B2 B2 A2 B2 c2  | \
w:   |   |   | 
_1/4B2 c2 B2 A2 d4 c2 B2  | _1/4B3A G12  | 
w:   |   | 
z4 _1/4B2 c2 d4 e2 d2  | c4 _1/4B2 c2 B4 A4  | \
w:   |   | 
G4 A12  | A4 f4 f6 z2  | A6 A2 f8  | f6 e2 f2 e2 f2 g2  | 
w:   |   |   |   | 
e6 d2 e2 d2 d2 c2  | d6 c2 _B4 A4  | \
w:   |   | 
A8 z4 A2 G2  | g8 g8  | g2 a4 g2 f4 e4  | 
w:   |   |   | 
e2 f4 e2 d2 c2 e2 d2  | d2 c2 =B2 c2 c8  | \
w:   |   | 
G8 c8  | d2 e4 dc c8  | a6 _b2 a2 g2 g2 f2  | 
w:   |   |   | 
f2 e2 e2 d2 d2 ^c2 d2 e2  | d4 d2 e2 d4 a2 g2  | \
w:   |   | 
g2 f2 f2 e2 e2 d2 d2 c2  | 
w:   | 
e2 d2 c2 =B2 c2 B2 e2 d2  | d3c =B2 c2 c4 g2 g2  | \
w:   |   | 
g4 g4 _7/8a2 g2 a2 g2  | 
w:   | 
g3f e4 f4 g4  | g2 _7/8a2 g2 f2 a2 g2 a2 g2  | \
w:   |   | 
g3f e2 f2 e2 f2 g2 f2  | 
w:   | 
f12 z4  | c8 c8  | d4 e2 d2 d3c =B2 c2  | \
w:   |   |   | 
c8 g2 f4 g2  | f2 e4 f2 e2 d4 e2  | 
w:   |   | 
e3d c2 e2 d4 d2 e2  | d4 _1/4B2 c2 B4 A4  | \
w:   |   | 
G4 A12  | G4 A4 A6 z2  | |


